X: 1792
T: Sonbaharın Bizi Daldırdığı Rüya
C: Bekir Sıtkı Sezgin
O: Turkey
F: http://compmusic.upf.edu/node/140
N: huzzam--sarki--aksak--sonbaharin_bizi--bekir_sitki_sezgin
N: makam= huzzam
N: form= sarki
N: usul= aksak = 9/8
M: 9/8
L: 1/16
K: C _1/4B _3/4e ^3/4f 
Q: 1/4=108
%%MIDI tuningsystem comma53
B4 c3d d4 g2f2 e2 | d3cd2 e2e2 (3dcdg2 f2e2  | \
w:  *  Son ba ha rın   |  *  *  bi zi  dal *  *  *  dır  | 
d3c B2c2 d2ed g3/2f/ga gf | 
w:  *  *  dı ğı  rü *  *  ya   | 
f3/2e/ egfe edd4fe dcB^A  | B4 c3d d4 g2f2 e2 | 
w:  *  *  *  *  ge *  çi *  ci   SAZ  |  *  Son ba ha rın   | 
d3cd2 e2e2 (3dcdg2 f2e2  | d3c B2c2 d2ed g3/2f/ga gf | 
w:  *  *  bi zi  dal *  *  *  dır  |  *  *  dı ğı  rü *  *  ya   | 
f3/2e/ egfe edd4gf edeg  | f4 f2f2 f3e g4 fe | 
w:  *  *  *  *  ge *  çi *  ci   SAZ  |  *  Sa ra ran  *  dal  | 
d4e2 f2g4a2 {c'}a_bag  | g3/2f/g2 a2ba c'2_b2 a2g2 fe | 
w:  *  la rı nın  çiz  |  *  *  *  di ği  *  dün *  ya   | 
d2 e2fg gff4gf edef  | g4 f2g2 g2(3fef c'4 _ba | 
w:  *  *  ge *  çi *  ci   SAZ  |  *  Sa ra ran  *  *  *  dal  | 
ag gff2 g2fe ed_b4ag  | f2{g}fe d2_1/4e2 dccB c4 (3B^AB | 
w:  *  *  *  *  la rı nın  *  *  *  çiz  |  *  *  *  *  di ği  dün *  *  *  ya   | 
f2 _1/4eddc cBB4ga g^9/8f=ef  | g4 ^9/8f3g g4 a2gf f=e | 
w:  *  *  *  ge *  çi *  ci   SAZ  |  *  El le rin  böy  | 
=e4^9/8f2 g2a4a4=ba  | g2z2 a2=b2 c'2ba d'2c'2 b2 | \
w:  *  le  so kul gan   |  *  ne fe sin  *  *  böy  | 
b2 {c'}baa2 {b}agg4a2 agfg  | 
w:  *  *  *  *  le  *  ya *  kın   SAZ  | 
a4 g2a2 a4 a4 (3gfg | a3ga2 _b2ag gfb4ag  | \
w:  *  Ba na  dün ya  |  *  *  la rı  va *  a *  det  | 
g4 f2g2 f2ed c'3/2b/c'2 _ba | 
w:  *  se  de  iç *  *  ten   | 
ag2ffe edd4gf edeg  | f4 f2f2 f3e g4 fe | 
w:  *  *  *  ba *  kı *  şın   SAZ  |  *  Sa ra ran  *  dal  | 
d4e2 f2g4a2 {c'}a_bag  | g3/2f/g2 a2ba c'2_b2 a2g2 fe | 
w:  *  la rı nın  çiz  |  *  *  *  di ği  *  dün *  ya   | 
d2 e2fg gff4gf edef  | g4 f2g2 g2(3fef c'4 _ba | 
w:  *  *  ge *  çi *  ci   SAZ  |  *  Sa ra ran  *  *  *  dal  | 
ag gff2 g2fe ed_b4ag  | f2{g}fe d2_1/4e2 dccB c4 (3B^AB | 
w:  *  *  *  *  la rı nın  *  *  *  çiz  |  *  *  *  *  di ği  dün *  *  *  ya   | 
f2 _1/4eddc cBB4|
w:  *  *  *  ge *  çi *  ci    | 


